svg/color/crmon.svg

<svg width="40" height="40" viewBox="0 0 40 40" fill="none" xmlns="http://www.w3.org/2000/svg">
<g clip-path="url(#clip0_820_3877)">
<path d="M20 0C31.0457 0 40 8.9543 40 20C40 31.0457 31.0457 40 20 40C8.95431 40 7.90517e-06 31.0457 0 20C6.58765e-07 8.95431 8.95431 1.97595e-06 20 0Z" fill="#CCECF9"/>
<path d="M26 6C30.4183 6 34 9.58172 34 14V26C34 30.4183 30.4183 34 26 34H14C9.58172 34 6 30.4183 6 26V14C6 9.58172 9.58172 6 14 6H26Z" fill="#00A1E0"/>
<g clip-path="url(#clip1_820_3877)">
<path d="M18.3384 14.5125C18.6653 14.1683 19.0589 13.8943 19.4951 13.7072C19.9314 13.5201 20.4012 13.4238 20.8759 13.4242C22.1759 13.4242 23.3376 14.1742 23.9509 15.2617C24.4759 15.0117 25.0759 14.8867 25.7009 14.8867C28.0759 14.8867 30.0001 16.8367 30.0001 19.2367C30.0001 21.6367 28.0751 23.5867 25.6867 23.5867C25.3992 23.5867 25.1117 23.55 24.8367 23.5C24.5669 23.9932 24.169 24.4044 23.685 24.6904C23.2011 24.9764 22.6489 25.1265 22.0867 25.125C21.5867 25.125 21.1242 25 20.7117 24.8125C20.4354 25.4619 19.974 26.0157 19.3851 26.4047C18.7962 26.7937 18.1058 27.0007 17.4001 27C16.6643 27.0019 15.9459 26.7775 15.3421 26.3571C14.7383 25.9367 14.2785 25.3407 14.0251 24.65C13.8001 24.7017 13.5751 24.7133 13.3376 24.7133C11.5009 24.7133 10.0001 23.2133 10.0001 21.3383C10.0001 20.0883 10.6759 19.0008 11.6751 18.4133C11.4626 17.9383 11.3501 17.4133 11.3501 16.875C11.3501 14.725 13.1001 13 15.2251 13C16.5001 13 17.6001 13.5875 18.3251 14.5" fill="white"/>
</g>
</g>
<defs>
<clipPath id="clip0_820_3877">
<rect width="40" height="40" fill="white"/>
</clipPath>
<clipPath id="clip1_820_3877">
<rect width="20" height="20" fill="white" transform="translate(10 10)"/>
</clipPath>
</defs>
</svg>

<svg xmlns="http://www.w3.org/2000/svg" width="40" height="40" fill="none" viewBox="0 0 40 40"><g clip-path="url(#crmon_svg-a)"><path fill="#CCECF9" d="M20 0c11.046 0 20 8.954 20 20s-8.954 20-20 20S0 31.046 0 20 8.954 0 20 0"/><path fill="#00A1E0" d="M26 6a8 8 0 0 1 8 8v12a8 8 0 0 1-8 8H14a8 8 0 0 1-8-8V14a8 8 0 0 1 8-8z"/><g clip-path="url(#crmon_svg-b)"><path fill="#fff" d="M18.338 14.513a3.5 3.5 0 0 1 2.538-1.089c1.3 0 2.462.75 3.075 1.838a4.1 4.1 0 0 1 1.75-.375c2.375 0 4.3 1.95 4.3 4.35s-1.926 4.35-4.314 4.35a5 5 0 0 1-.85-.087 3.12 3.12 0 0 1-2.75 1.625c-.5 0-.963-.125-1.375-.312A3.6 3.6 0 0 1 17.4 27a3.585 3.585 0 0 1-3.375-2.35 3 3 0 0 1-.687.063c-1.837 0-3.338-1.5-3.338-3.375a3.39 3.39 0 0 1 1.675-2.925 3.8 3.8 0 0 1-.325-1.538c0-2.15 1.75-3.875 3.875-3.875 1.275 0 2.375.588 3.1 1.5"/></g></g><defs><clipPath id="crmon_svg-a"><path fill="#fff" d="M0 0h40v40H0z"/></clipPath><clipPath id="crmon_svg-b"><path fill="#fff" d="M10 10h20v20H10z"/></clipPath></defs></svg>
